etc/skel/.local/share/icons/Tela-circle-dark/symbolic/places/user-trash-symbolic.svg

<svg width="16" height="16" version="1.1" viewBox="0 0 16 16" xmlns="http://www.w3.org/2000/svg">
 <defs>
  <style id="current-color-scheme" type="text/css">.ColorScheme-Text { color:#aaaaaa; } .ColorScheme-Highlight { color:#5294e2; }</style>
 </defs>
 <path style="fill:currentColor" class="ColorScheme-Text" d="m6 0.99414c-1 0-1 1-1 1h-3s-1 0.0015531-1 1.002v0.0039062 1l13-0.0039062v-1c0-1-1-1.002-1-1.002h-3s0-1-1-1h-3zm-4 4.0059v9c5e-5 0.52358 0.47642 0.99995 1 1h9c0.52358-5e-5 0.99995-0.47642 1-1v-9h-2v8h-7v-8h-2z"/>
</svg>

<svg width="16" height="16" xmlns="http://www.w3.org/2000/svg"><defs><style id="current-color-scheme" type="text/css">.ColorScheme-Highlight{color:#5294e2}</style></defs><path style="fill:currentColor;color:#555" d="M6 .994c-1 0-1 1-1 1H2s-1 .002-1 1.002V4l13-.004v-1c0-1-1-1.002-1-1.002h-3s0-1-1-1H6zM2 5v9c0 .524.476 1 1 1h9c.524 0 1-.476 1-1V5h-2v8H4V5H2z"/></svg>
